img/icon-question.svg

<svg width="91" height="130" viewBox="0 0 91 130" fill="none" xmlns="http://www.w3.org/2000/svg">
<g filter="url(#filter0_d_582_2015)">
<path fill-rule="evenodd" clip-rule="evenodd" d="M41.3477 15.2063C36.274 15.9323 31.3865 17.9486 27.2054 21.0407C25.5106 22.2941 22.2225 25.589 21.0649 27.1936C16.9521 32.895 15 38.9539 15 46.0186V48.3552H26.7179H38.4356L38.5115 46.0575C38.5778 44.0532 38.6571 43.6074 39.1335 42.5652C39.8166 41.0706 41.1484 39.7435 42.6832 39.0278C43.6794 38.5632 44.1086 38.4803 45.52 38.4803C46.9313 38.4803 47.3606 38.5632 48.3568 39.0278C49.8857 39.7408 51.2217 41.0701 51.9117 42.5652C52.3793 43.5781 52.4635 44.013 52.4642 45.422C52.465 46.8348 52.3829 47.2601 51.9166 48.2574C51.615 48.9027 51.0867 49.7257 50.7428 50.0863C50.3989 50.4469 46.4418 53.8669 41.9495 57.6866L33.7815 64.6313V75.1675V85.7037H45.52H57.2584L57.2696 80.5707L57.2805 75.4378L61.6873 71.7225C67.8606 66.5179 70.0662 64.0768 72.3773 59.8922C75.3358 54.5351 76.5752 47.7637 75.7496 41.4684C74.8624 34.7042 71.9301 28.7867 67.0469 23.906C62.4638 19.325 57.135 16.5291 50.8048 15.3842C48.4468 14.9578 43.7077 14.8686 41.3477 15.2063ZM48.5872 20.9922C55.8512 21.9814 62.1209 25.8946 66.0992 31.9226C71.2493 39.7261 71.4911 49.9078 66.7177 57.9498C64.9291 60.9631 63.1873 62.7656 57.0931 67.9094L51.4172 72.7002L51.4033 76.2688L51.3892 79.8374H45.52H39.6507V73.5975V67.3576L46.6449 61.4285C50.4918 58.1677 54.1321 55.0032 54.7346 54.3966C56.1102 53.0118 57.0757 51.4336 57.7733 49.4287C58.2556 48.0431 58.3172 47.5896 58.3172 45.422C58.3172 43.283 58.2525 42.7922 57.7992 41.4924C55.9752 36.2609 51.5786 32.877 46.2143 32.5765C42.1066 32.3465 37.8516 34.2568 35.4026 37.4304C34.5028 38.5963 33.562 40.3894 33.1844 41.6579L32.9369 42.4889H26.9838H21.0304L21.1625 41.6579C23.2453 28.5503 35.619 19.2262 48.5872 20.9922ZM42.6249 91.9654C40.4834 92.5262 38.9672 93.4133 37.2964 95.0831C35.6018 96.7769 34.7333 98.2771 34.1679 100.486C33.462 103.245 33.8285 106.245 35.1886 108.839C36.02 110.425 38.3936 112.798 39.9806 113.629C42.5764 114.988 45.5777 115.354 48.338 114.649C50.5479 114.084 52.0489 113.216 53.7435 111.522C55.4382 109.828 56.3066 108.328 56.872 106.119C57.5779 103.36 57.2115 100.36 55.8514 97.7659C55.0199 96.1797 52.6464 93.8074 51.0593 92.9763C48.4708 91.6208 45.3633 91.2483 42.6249 91.9654ZM48.1488 98.106C50.195 99.1068 51.2834 100.911 51.2834 103.302C51.2834 104.968 50.877 106.083 49.8389 107.264C48.2472 109.076 45.1989 109.634 42.941 108.525C39.8057 106.987 38.734 103.094 40.625 100.114C42.1859 97.6539 45.4454 96.7841 48.1488 98.106Z" fill="#06FF79"/>
</g>
<defs>
<filter id="filter0_d_582_2015" x="0" y="0" width="91" height="130" filterUnits="userSpaceOnUse" color-interpolation-filters="sRGB">
<feFlood flood-opacity="0" result="BackgroundImageFix"/>
<feColorMatrix in="SourceAlpha" type="matrix" values="0 0 0 0 0 0 0 0 0 0 0 0 0 0 0 0 0 0 127 0" result="hardAlpha"/>
<feOffset/>
<feGaussianBlur stdDeviation="7.5"/>
<feComposite in2="hardAlpha" operator="out"/>
<feColorMatrix type="matrix" values="0 0 0 0 0.0463889 0 0 0 0 0.695833 0 0 0 0 0.346333 0 0 0 0.8 0"/>
<feBlend mode="normal" in2="BackgroundImageFix" result="effect1_dropShadow_582_2015"/>
<feBlend mode="normal" in="SourceGraphic" in2="effect1_dropShadow_582_2015" result="shape"/>
</filter>
</defs>
</svg>

<svg width="91" height="130" fill="none" xmlns="http://www.w3.org/2000/svg"><g filter="url(#filter0_d_582_2015)"><path fill-rule="evenodd" clip-rule="evenodd" d="M41.348 15.206c-5.074.726-9.961 2.743-14.143 5.835-1.694 1.253-4.982 4.548-6.14 6.153C16.952 32.895 15 38.954 15 46.019v2.336h23.436l.075-2.297c.067-2.005.146-2.45.622-3.493.684-1.494 2.015-2.822 3.55-3.537.996-.465 1.426-.548 2.837-.548 1.411 0 1.84.083 2.837.548 1.529.713 2.865 2.042 3.555 3.537.467 1.013.552 1.448.552 2.857.001 1.413-.081 1.838-.547 2.835-.302.646-.83 1.469-1.174 1.83-.344.36-4.301 3.78-8.794 7.6l-8.167 6.944v21.073h23.476l.012-5.133.01-5.133 4.407-3.716c6.174-5.204 8.38-7.645 10.69-11.83 2.959-5.357 4.198-12.128 3.373-18.424-.888-6.764-3.82-12.681-8.703-17.562-4.583-4.581-9.912-7.377-16.242-8.522-2.358-.426-7.097-.515-9.457-.178zm7.24 5.786c7.263.99 13.533 4.903 17.511 10.93 5.15 7.804 5.392 17.986.619 26.028-1.789 3.013-3.53 4.816-9.625 9.96l-5.676 4.79-.014 3.569-.014 3.568H39.65v-12.48l6.995-5.928c3.847-3.261 7.487-6.426 8.09-7.032 1.375-1.385 2.34-2.963 3.038-4.968.483-1.386.544-1.84.544-4.007 0-2.139-.065-2.63-.518-3.93-1.824-5.231-6.22-8.615-11.585-8.915-4.107-.23-8.362 1.68-10.811 4.853-.9 1.166-1.841 2.96-2.219 4.228l-.247.83H21.03l.133-.83c2.082-13.108 14.456-22.432 27.424-20.666zm-5.963 70.973c-2.142.561-3.658 1.448-5.329 3.118-1.694 1.694-2.563 3.194-3.128 5.403-.706 2.759-.34 5.759 1.02 8.353.832 1.586 3.206 3.959 4.793 4.79 2.595 1.359 5.597 1.725 8.357 1.02 2.21-.565 3.71-1.433 5.405-3.127 1.695-1.694 2.564-3.194 3.129-5.403.706-2.759.34-5.759-1.02-8.353-.832-1.586-3.206-3.959-4.793-4.79-2.588-1.355-5.696-1.728-8.434-1.01zm5.524 6.141c2.046 1 3.134 2.805 3.134 5.196 0 1.666-.406 2.781-1.444 3.962-1.592 1.812-4.64 2.37-6.898 1.261-3.135-1.538-4.207-5.431-2.316-8.411 1.56-2.46 4.82-3.33 7.524-2.008z" fill="#06FF79"/></g><defs><filter id="filter0_d_582_2015" x="0" y="0" width="91" height="130" filterUnits="userSpaceOnUse" color-interpolation-filters="sRGB"><feFlood flood-opacity="0" result="BackgroundImageFix"/><feColorMatrix in="SourceAlpha" values="0 0 0 0 0 0 0 0 0 0 0 0 0 0 0 0 0 0 127 0" result="hardAlpha"/><feOffset/><feGaussianBlur stdDeviation="7.5"/><feComposite in2="hardAlpha" operator="out"/><feColorMatrix values="0 0 0 0 0.0463889 0 0 0 0 0.695833 0 0 0 0 0.346333 0 0 0 0.8 0"/><feBlend in2="BackgroundImageFix" result="effect1_dropShadow_582_2015"/><feBlend in="SourceGraphic" in2="effect1_dropShadow_582_2015" result="shape"/></filter></defs></svg>
